ui/client/assets/img/toolbarButtons/group-cancel.svg

<svg xmlns="http://www.w3.org/2000/svg" viewBox="0 0 36 36"><g data-name="Layer 2"><g data-name="aplikacja główna" fill="#b3b3b3"><path d="M25 14.8V11h-3.8V5.2h-16v16H11V25h3.8v5.8h16v-16zm-14 4.4H7.2v-12h12V11H11zm2-1.2a5 5 0 115 5 5 5 0 01-5-5zm15.8 10.8h-12V25H25v-8.2h3.8z"/><path d="M19 20.71l-3.66-3.66a2.75 2.75 0 00-.16.95A2.89 2.89 0 0018 20.88a2.75 2.75 0 001-.17zM20.88 18A2.88 2.88 0 0018 15.13a3 3 0 00-.95.15L20.72 19a3.1 3.1 0 00.16-1z"/></g></g></svg>

<svg xmlns="http://www.w3.org/2000/svg" viewBox="0 0 36 36"><defs><style>.cls-1{fill:none;}.cls-2{fill:#b3b3b3;}</style></defs><title>group-cancel</title><g id="Layer_2" data-name="Layer 2"><g id="aplikacja_główna" data-name="aplikacja główna"><rect class="cls-1" width="36" height="36"/><path class="cls-2" d="M25,14.8V11H21.2V5.2H5.2v16H11V25h3.8v5.8h16v-16ZM11,19.2H7.2V7.2h12V11H11ZM13,18a5,5,0,1,1,5,5A5,5,0,0,1,13,18ZM28.8,28.8h-12V25H25V16.8h3.8Z"/><path class="cls-2" d="M19,20.71l-3.66-3.66a2.75,2.75,0,0,0-.16.95A2.89,2.89,0,0,0,18,20.88,2.75,2.75,0,0,0,19,20.71Z"/><path class="cls-2" d="M20.88,18A2.88,2.88,0,0,0,18,15.13a3,3,0,0,0-.95.15L20.72,19A3.1,3.1,0,0,0,20.88,18Z"/></g></g></svg>
